X:40
T:Fils et bobine
R:Bourr\'ee
O:France
M:3/4
C:Jean Blanchard
K:D
FG|A2d2c2|A3G AB|=c2B2G2|AB AG FG|\
A2d2c2|A3G AB|=c2B2G2|A4::\
A2F2D2|E4EF|G2F2D2|EFG2FG|A2F2D2|E4EF\
|1G2F2D2|E4FG:|2 G2F2E2|D4||
